icons/Ordinateur.svg

<svg xmlns="http://www.w3.org/2000/svg" width="24" height="24" viewBox="0 0 24 24"><path d="M2 0v15h20v-15h-20zm18 13h-16v-11h16v11zm-6 3l1.599 2h-7.198l1.599-2h4zm-12 3v5h20v-5h-20zm9.5 3.1c-.332 0-.6-.269-.6-.6s.269-.6.6-.6.6.269.6.6-.268.6-.6.6zm8.5-.1h-6v-1h6v1z"/></svg>

<?xml version="1.0" encoding="utf-8"?>
<!-- Generator: Adobe Illustrator 23.0.1, SVG Export Plug-In . SVG Version: 6.00 Build 0)  -->
<svg version="1.1" id="Calque_1" xmlns="http://www.w3.org/2000/svg" xmlns:xlink="http://www.w3.org/1999/xlink" x="0px" y="0px"
	 viewBox="0 0 24 24" style="enable-background:new 0 0 24 24;" xml:space="preserve">
<style type="text/css">
	.st0{fill:#FF9300;}
</style>
<path class="st0" d="M2,0v15h20V0H2z M20,13H4V2h16V13z M14,16l1.6,2H8.4l1.6-2H14z M2,19v5h20v-5H2z M11.5,22.1
	c-0.3,0-0.6-0.3-0.6-0.6s0.3-0.6,0.6-0.6s0.6,0.3,0.6,0.6S11.8,22.1,11.5,22.1z M20,22h-6v-1h6V22z"/>
</svg>
